!!!OTL: ES GIEBT NICHTS SCHOENRES
!!!ARE: Europa, Mitteleuropa, Deutschland, Hessen; Rheinland
!!!SCT: E1348
!!!YEM: Copyright 1995, estate of Helmut Schaffrath.
**kern
*ICvox
*Ivox
*M4/4
*k[f#]
*G:
{4d
=1
4g
4g
4g
8f#
8e
=2
4e
4d
4d}
{8e
8f#
=3
4g
4b
4dd
4b
=4
2a
4r}
{8a
8b
=5
4.cc
8b
4a
4dd
=6
4.b
8a
4g}
{4g
=7
4a
8cc
8a
4f#
8e
8f#
=8
2g
4r}
{8a
8b
=9
4.cc
8b
4a
4dd
=10
4.b
8a
4g}
{4g
=11
4a
8cc
8a
4f#
8e
8f#
=12
2g
4r}
==
!!!AGN: Staende -, Soldaten -, Kriegs - Lied
!!!ONB: ESAC (Essen Associative Code) Database: ERK3
!!!AMT: simple quadruple
!!!AIN: vox
!!!EED: Helmut Schaffrath
!!!EEV: 1.0
*-
